X:1
T:A toye
T:A toye
T:Anónimo S. XVI
C:Anónimo S. XVI
%%score ( 1 2 )
L:1/8
Q:1/4=70
M:6/8
K:A
V:1 treble-8 nm="Classical Guitar" snm="Guit."
V:2 treble-8 
V:1
"^Capo 2" c2 A c>de | f>ef B2 B | c>de e>fg | a2 e c A2 | c2 A c>de | f>ef B2 B | c>de e>fg | %7
 a2 e cA=g | f2 e dB=g | f2 e dB=g | f2 e f2 ^g | a2 e cA=g | f2 e dB=g | f2 e dB=g | f2 e f2 ^g | %15
 a2 e c A2 | c2 A c>de | f>ef B2 B | c>de e>fg | a2 e c A2 | c2 A c>de | f>ef B2 B | c>de e>fg | %23
 a2 e c !fermata!A2 |] %24
V:2
 A,6 | D3 E,3 | A,3 E,3 | A,3- A,2 A, | A,6 | D3 E,3 | A,3 E,3 | A,3- A,2 z | D6 | D6 | D3- D2 E, | %11
 A,3- A,2 A, | D6 | D6 | D3- D2 E, | A,3- A,2 A, | A,6 | D3 E,3 | A,3 E,3 | A,3- A,2 A, | A,6 | %21
 D3 E,3 | A,3 E,3 | A,3- A,2 !fermata!A, |] %24

